X: 5
T: String Quartet No. 2 in G Major, Op. 18, No. 2 mvt 1
C: Ludwig van Beethoven
%%abc-version 2.0
%%abcx-abcm2ps-target-version 5.9.1 (29 Sep 2008)
%%abc-creator hum2abc beta
%%abcx-conversion-date 2021/01/27 10:01:11
%%abc-edited-by Craig Stuart Sapp
%%abcx-initial-encoding-date 2006/04/06/
%%gracespace 0 6 6
%%humdrum-veritas 68330254
%%humdrum-veritas-data 1892173080
%%linebreak <none>
%%barnumbers 0
L: 1/16
M: 2/4
N: Derived from quartet02-1.krn
Q: "Allegro" 1/4=120
%%staves [1 2 3 4]
V: 1 clef=treble
V: 2 clef=treble
V: 3 clef=alto
V: 4 clef=bass
K: G
[V:1] d4B/c/B/c/d/e/f/g/ | 
[V:2] D8- | 
[V:3] B,8- | 
[V:4] G,8- | 
[V:1] d4z2 z3/ B/ | 
[V:2] D4z2 z3/ B,/ | 
[V:3] B,4z2 z3/ B,/ | 
[V:4] G,4z2 z3/ B,/ | 
[V:1] c2z>c A2z3/F/ | 
[V:2] C2z>c A2z3/F/ | 
[V:3] C2z>C A,2z3/F,/ | 
[V:4] C2z>C A,2z3/F,/ | 
[V:1] D4z2 D2 | 
[V:2] D4z4 | 
[V:3] D,4z4 | 
[V:4] D,4z4 | 
[V:1] G4ABcA | 
[V:2] z2G4.F2 | 
[V:3] z2 .E2 .C2.D2 | 
[V:4] z8 | 
[V:1] d4g2D2 | 
[V:2] .G2.B2z4 | 
[V:3] .B,2.G,2z4 | 
[V:4] z8 | 
[V:1] G4ABcA | 
[V:2] z2 .B,2 .E2.C2 | 
[V:3] z2G,4.F,2 | 
[V:4] z2 .E,2 .C,2.D,2 | 
[V:1] G2z6 | 
[V:2] .B,2z6 | 
[V:3] .G,2z6 | 
[V:4] .G,,2z6 | 
[V:1] [B4b4]a/g/f/g/f/g/b/g/ | 
[V:2] [D8B8]- | 
[V:3] D8 | 
[V:4] G,8 | 
[V:1] d2 z2 z2 z3/ D/ | 
[V:2] [D2B2] z2 z2 z3/ D/ | 
[V:3] F2 z2 z2 z3/ C/ | 
[V:4] A,2 z2 z2 z3/ A,/ | 
[V:1] G2z>G B2z3/B/ | 
[V:2] D2z>D G2z3/G/ | 
[V:3] D2z>D B,2z3/B,/ | 
[V:4] B,2z>B, G,2z3/G,/ | 
[V:1] d2z6 | 
[V:2] F2z6 | 
[V:3] A,2z6 | 
[V:4] D,2z6 | 
[V:1] [G,4D4B4b4]a/g/f/g/f/g/b/g/ | 
[V:2] B,8 | 
[V:3] D,8- | 
[V:4] G,,8 | 
[V:1] d4z2 z3/ d/ | 
[V:2] C4z2 z3/ C/ | 
[V:3] D,4z2 z3/ D,/ | 
[V:4] A,,4z2 z3/ A,,/ | 
[V:1] g2z>g b2z3/b/ | 
[V:2] D2z>D B2z3/B/ | 
[V:3] D,2z>D, G,2z3/G,/ | 
[V:4] B,,2z>B,, G,,2z3/G,,/ | 
[V:1] d'2z6 | 
[V:2] A2z6 | 
[V:3] F,2z6 | 
[V:4] D,,2z6 | 
[V:1] c8 | 
[V:2] G8 | 
[V:3] z8 | 
[V:4] E4_E4 | 
[V:1] c'4-c'/b/a/g/f/e/d/c/ | 
[V:2] A6A2 | 
[V:3] F6D2 | 
[V:4] D6F,2 | 
[V:1] B2z>g A2z3/d/ | 
[V:2] B2z>G G2z3/F/ | 
[V:3] G2z>B, E2z3/C/ | 
[V:4] G,2z>E, C,2z3/D,/ | 
[V:1] G2z6 | 
[V:2] G2z6 | 
[V:3] B,2z6 | 
[V:4] G,2z6 | 
[V:1] .D4.D4 | 
[V:2] .D4.D4 | 
[V:3] .D,4.D,4 | 
[V:4] .D,4.D,4 | 
[V:1] G6BG | 
[V:2] G6B,D | 
[V:3] G,6G,2 | 
[V:4] G,6z2 | 
[V:1] GFAF AGBG | 
[V:2] CDCD B,DB,D | 
[V:3] .A,2.A,2 .G,2.G,2 | 
[V:4] z8 | 
[V:1] d2 z2z4 | 
[V:2] A,D z2z4 | 
[V:3] F,2 z2z4 | 
[V:4] z8 | 
[V:1] z8 | 
[V:2] .B,4.B,4 | 
[V:3] .B,4.B,4 | 
[V:4] .B,,4.B,,4 | 
[V:1] z4z2 ge | 
[V:2] E6GB | 
[V:3] E6.E2 | 
[V:4] E,6z2 | 
[V:1] e^dfd fege | 
[V:2] ABAB GBGB | 
[V:3] .F2.F2 .E2.E2 | 
[V:4] z8 | 
[V:1] b4z2 ge | 
[V:2] FBz4GB | 
[V:3] _E2z4=E2 | 
[V:4] z2 .B,,2.E,2 z2 | 
[V:1] d^cec edfd | 
[V:2] GAGA FAFA | 
[V:3] .E2.E2 .D2.D2 | 
[V:4] z8 | 
[V:1] a4z2 =fd | 
[V:2] EAz4=FA | 
[V:3] ^C2z4D2 | 
[V:4] z2 .A,,2.D,2 z2 | 
[V:1] d^cec ed=fd | 
[V:2] GAGA =FAFA | 
[V:3] .E2.E2 .D2.D2 | 
[V:4] z8 | 
[V:1] aA2<a2 Aa2- | 
[V:2] .EE^CE .=FFDF | 
[V:3] .^CCA,C .DDA,D | 
[V:4] A,,2 z2 D,2 z2 | 
[V:1] aA2<a2 Aa2- | 
[V:2] .Ee^ce .=ffdf | 
[V:3] .^CCEC .DD=FD | 
[V:4] A,,2 z2 D,2 z2 | 
[V:1] (3a.A.^c (3.e.a.^c' (3.e'.c'.a (3.e.c.A | 
[V:2] e4z2 (3.A,.^C.E | 
[V:3] ^C4z2 (3.A,.C.E | 
[V:4] A,,4z2 (3.A,,.^C,.E, | 
[V:1] A,4z2 A2 | 
[V:2] A4z4 | 
[V:3] A4z4 | 
[V:4] A,4z4 | 
[V:1] .f4.e4 | 
[V:2] z4.^c4 | 
[V:3] .A4.A4 | 
[V:4] .D4.G4 | 
[V:1] a6g2 | 
[V:2] d6_B2 | 
[V:3] A6E2 | 
[V:4] F6^C2 | 
[V:1] .f2.e2 .d2.e2 | 
[V:2] .A2.G2 .F2.E2 | 
[V:3] .F2.^C2 .D2.D2 | 
[V:4] .D2.^A,2 .B,2.^G,2 | 
[V:1] .A.A.B.^c .d._e.=e.f | 
[V:2] E2z6 | 
[V:3] ^C2z6 | 
[V:4] A,2z6 | 
[V:1] .g4.f4 | 
[V:2] z4.^d4 | 
[V:3] .B4.B4 | 
[V:4] .E4.A4 | 
[V:1] b6^c'2 | 
[V:2] e6e2 | 
[V:3] B6A2- | 
[V:4] G6G2 | 
[V:1] .d'2.e'2 .a2.^c'2 | 
[V:2] .d2.e2 .f2.g2 | 
[V:3] A2.B2 .d2.e2 | 
[V:4] .F2.G2 .A2.A,2 | 
[V:1] d'2z6 | 
[V:2] f.A,.B,.^C .D._E.=E.=F | 
[V:3] d4z4 | 
[V:4] D4z4 | 
[V:1] z .A.B.^c .d.e.f.g | 
[V:2] .F4.E4 | 
[V:3] .A,4.A,4 | 
[V:4] .D,4.G,4 | 
[V:1] aab^c' d'e'f'g' | 
[V:2] A6.G2 | 
[V:3] A,6.A,2 | 
[V:4] F,6.E,2 | 
[V:1] a'a'a'a' a'^g'f'g' | 
[V:2] .F2.E2 .D2.D2 | 
[V:3] .A,2.A,2 .A,2.E,2 | 
[V:4] .D,2.^C,2 .B,,2.E,,2 | 
[V:1] a'2z6 | 
[V:2] .^C.A,.B,.C .D.^D.E.F | 
[V:3] A,2z6 | 
[V:4] A,,2z6 | 
[V:1] z .B.^c.^d .e.f.g.a | 
[V:2] .G4.F4 | 
[V:3] .B,4.B,4 | 
[V:4] .E,4.A,4 | 
[V:1] bb^c'^d' ^e'f'^g'^a' | 
[V:2] B6A2 | 
[V:3] B,6B,2 | 
[V:4] G,6F,2 | 
[V:1] b'bbb bbbb | 
[V:2] .G2.F2 .^E2.E2 | 
[V:3] .B,2.B,2 .=D2.B,2 | 
[V:4] .E,2.F,2 .G,2.G,2 | 
[V:1] ^a2 z> F f2e2- | 
[V:2] F2 z2 d2^c2- | 
[V:3] ^C2z4F,2 | 
[V:4] F,2 z2 z .F,,.^G,,.^A,, | 
[V:1] e2dz/F/ f2e2- | 
[V:2] c2B z d2^c2- | 
[V:3] F6F,2 | 
[V:4] B,,2B,,2 z .F,,.^G,,.^A,, | 
[V:1] e2dz/F/ f2e2- | 
[V:2] c2B z d2^c2- | 
[V:3] F6F,2 | 
[V:4] B,,2B,,2 z .F,,.^G,,.^A,, | 
[V:1] e2d2^d4 | 
[V:2] c2B2=c4 | 
[V:3] F4F4 | 
[V:4] B,,2B,,2A,4 | 
[V:1] e>Bg>e ^d2^c2 | 
[V:2] B2B>G F2G2 | 
[V:3] G2G,>B, A,2A,2 | 
[V:4] G,2E,>G, A,2A,,2 | 
[V:1] d2z4f2- | 
[V:2] F2 z> F f2e2- | 
[V:3] A,2 z2 D2^C2- | 
[V:4] D,4z .F,,.^G,,.^A,, | 
[V:1] f^abg .f2f2- | 
[V:2] e2dz/F/ f2e2- | 
[V:3] C2B, z D2^C2- | 
[V:4] B,,2B,,2 z .F,,.^G,,.^A,, | 
[V:1] f^abg f2f2- | 
[V:2] e2dz/F/ f2e2- | 
[V:3] C2B, z D2^C2- | 
[V:4] B,,2B,,2 z .F,,.^G,,.^A,, | 
[V:1] fb^ab=c'4- | 
[V:2] e2d2^d4 | 
[V:3] C2B, zF,4 | 
[V:4] B,,2B,,2=A,,4 | 
[V:1] c'b=a/g/f/e/ d2^c2 | 
[V:2] e2 z B F2G2 | 
[V:3] G,G,A,B, A,2A,2 | 
[V:4] =G,,E,,F,,G,, A,,2A,,2 | 
[V:1] d2z6 | 
[V:2] F2 z2 (3:2:6.E.F.G.A.B.^c | 
[V:3] .D,A,DA, z A,^CA, | 
[V:4] D,,2 z2 G,2 z2 | 
[V:1] z8 | 
[V:2] d>A.f2 e>A.g2 | 
[V:3] z A,DA, z A,EA, | 
[V:4] F,2 z2 ^C,2 z2 | 
[V:1] z4(3:2:6.e.f.g.a.b.^c' | 
[V:2] f>A.a2 .E.A.E.A | 
[V:3] z A,FA, .^C.A,.C.A, | 
[V:4] D,2 z2 G,2 z2 | 
[V:1] d'd'af' e'e'^c'g' | 
[V:2] .F.A.F.A .G.A.G.A | 
[V:3] .D.A,.D.A, .^C.A,.E.A, | 
[V:4] F,2 z2 A,,2 z2 | 
[V:1] f'f'd'a'z4 | 
[V:2] .F.A.F.A (3:2:6.E.F.G.A.B.^c | 
[V:3] .D.A,.D.A, z A,^CA, | 
[V:4] D,,2 z2 G,2 z2 | 
[V:1] z8 | 
[V:2] .ddAf .eeAg | 
[V:3] z A,DA, z A,EA, | 
[V:4] F,2 z2 ^C,2 z2 | 
[V:1] z4(3:2:6.e.f.g.a.b.^c' | 
[V:2] .ffAa .E.A.E.A | 
[V:3] z A,FA, .^C.A,.C.A, | 
[V:4] D,4G,4 | 
[V:1] (3:2:6.d'.e'.d'.^a.b.a (3:2:6.b.c'.b.f.g.f | 
[V:2] F2f2 .g2.^d2 | 
[V:3] A2z6 | 
[V:4] F,4z4 | 
[V:1] (3:2:6gag^ded (3:2:6efe=ded | 
[V:2] .e2.c2 .^c2.B2 | 
[V:3] z8 | 
[V:4] z8 | 
[V:1] (3:2:6^cdcBcB (3:2:6ABAGAG | 
[V:2] .A2.G2 .F2.E2 | 
[V:3] z2 .^C,2 .D,2.E,2 | 
[V:4] z2 .A,,2 .B,,2.^C,2 | 
[V:1] FfFf GgAa | 
[V:2] D2D4D2- | 
[V:3] F,2D,4C2 | 
[V:4] .D,2.C,2 .B,,2.F,,2 | 
[V:1] Bb^c^c' dd'ee' | 
[V:2] D2A4A2- | 
[V:3] B,2.G,2.A,2G2 | 
[V:4] .G,,2.E,,2 .F,,2.^C,,2 | 
[V:1] f.f'2.f'2.f'2f'- | 
[V:2] A2F4F2- | 
[V:3] F2D4D2- | 
[V:4] .D,,2.^A,,2 .B,,2.^G,,2 | 
[V:1] f'f'2f'- f'f'2f'- | 
[V:2] F2F4F2- | 
[V:3] D2D4D2- | 
[V:4] .A,,2.^A,,2 .B,,2.^G,,2 | 
[V:1] f'2(3fdf (3:2:6geg^g^eg | 
[V:2] F2 d2^c2B2 | 
[V:3] D2 D2^C2B,2 | 
[V:4] A,,8- | 
[V:1] (3:2:6afafdf (3:2:6geg^g^eg | 
[V:2] .A2 D2^C2B,2 | 
[V:3] .A,2 D2^C2B,2 | 
[V:4] A,,2 D,2^C,2B,,2 | 
[V:1] (3afa z2 z2 A2 | 
[V:2] .A,2 z2z4 | 
[V:3] .A,2 z2z4 | 
[V:4] .A,,2 z2z4 | 
[V:1] d4efge | 
[V:2] z2d4.^c2 | 
[V:3] z2 .B2 .G2.A2 | 
[V:4] z8 | 
[V:1] a4d'2A,2 | 
[V:2] .d2.f2z4 | 
[V:3] .F2.D2z4 | 
[V:4] z8 | 
[V:1] D4EFGE | 
[V:2] z2 .F2 .B2.G2 | 
[V:3] z2D,4.^C,2 | 
[V:4] z2 .B,,2 .G,,2.A,,2 | 
[V:1] D4z4 :|]  
[V:2] F4z4 :|]  
[V:3] D,4z4 :|]  
[V:4] D,,4z4 :|]  
[V:1] A2 z2z4 | 
[V:2] z8 | 
[V:3] z8 | 
[V:4] z8 | 
[V:1] d4e=fge | 
[V:2] z2d4.^c2 | 
[V:3] z2 ._B2 .G2.A2 | 
[V:4] z8 | 
[V:1] a4d'2a2 | 
[V:2] .=d2.f2 z2 A2 | 
[V:3] .=F2.D2z4 | 
[V:4] z8 | 
[V:1] d'4e'=f'g'e' | 
[V:2] d4e=fge | 
[V:3] z2D4.^C2 | 
[V:4] z2 ._B,2 .G,2.A,2 | 
[V:1] d'2 z2z4 | 
[V:2] d2 z2z4 | 
[V:3] D2 z2z4 | 
[V:4] D,2 z2z4 | 
[V:1] .A,4.A,4 | 
[V:2] .A,4.A,4 | 
[V:3] .A,4.A,4 | 
[V:4] .A,,4.A,,4 | 
[V:1] D6=FD | 
[V:2] D6z2 | 
[V:3] D6=F,A, | 
[V:4] D,6D,2 | 
[V:1] D^CEC ED=FD | 
[V:2] z2 A2 z2 A2 | 
[V:3] G,A,G,A, =F,A,F,A, | 
[V:4] .E,2.E,2 .D,2.D,2 | 
[V:1] A2 z2z4 | 
[V:2] z2 A2z4 | 
[V:3] E,2 z2z4 | 
[V:4] A,,4z4 | 
[V:1] z8 | 
[V:2] .=F4.F4 | 
[V:3] .=F,4.F,4 | 
[V:4] .=F,,4.F,,4 | 
[V:1] z4z2 d_B | 
[V:2] _B6D=F | 
[V:3] _B,6B,2 | 
[V:4] _B,,6z2 | 
[V:1] _BAcA cBdB | 
[V:2] _E=FEF DFDF | 
[V:3] .C2.C2 ._B,2.B,2 | 
[V:4] z8 | 
[V:1] =f2z4_ec | 
[V:2] C=Fz4_EG | 
[V:3] A,2z4C2 | 
[V:4] z2 =F,,2 C,2 z2 | 
[V:1] cBdB dc_dc | 
[V:2] =FGFG _DGDG | 
[V:3] .D2.D2 .C2.C2 | 
[V:4] z8 | 
[V:1] g2z6 | 
[V:2] DGz6 | 
[V:3] B,4z2 G_E | 
[V:4] z2 .G,,2_E,2 G,E, | 
[V:1] z8 | 
[V:2] z8 | 
[V:3] _ED=FD FEGE | 
[V:4] _E,D,=F,D, F,E,G,E, | 
[V:1] z2 ._B2._b2 z2 | 
[V:2] z6_EG | 
[V:3] _B4z2 _B,_E | 
[V:4] _B,4z2 G,_E, | 
[V:1] z2 ._B2._b2 z2 | 
[V:2] =F4z2 _EG | 
[V:3] D4z2 _B,G, | 
[V:4] _B,4z2 G,,_E,, | 
[V:1] z2 _B_b z2 Bb | 
[V:2] .D2_EG .D2EG | 
[V:3] .=F,2_B,G, .F,2B,G, | 
[V:4] ._B,,2G,,_E,, .B,,2G,,E,, | 
[V:1] z2 _B_b z2 B2 | 
[V:2] D2 z2z4 | 
[V:3] =F,2 z2z4 | 
[V:4] _B,,2 z2z4 | 
[V:1] [G,4_E4_B4g4]=f/_e/d/e/d/e/g/e/ | 
[V:2] _B,8 | 
[V:3] G,8 | 
[V:4] _E,8 | 
[V:1] _B4z2 z3/ B/ | 
[V:2] D4z2 z3/ _B/ | 
[V:3] _A,4z2 z3/ A,/ | 
[V:4] =F,4z2 z3/ F,/ | 
[V:1] _e2z>e g2z3/g/ | 
[V:2] _E2z>E [_B,2G2]z3/[B,/G/] | 
[V:3] _B,2z>B, _E2z3/E/ | 
[V:4] G,2>>G,2 _E,2z3/E,/ | 
[V:1] _b2 z2z4 | 
[V:2] [_B,2=F2] z2z4 | 
[V:3] D2 z2z4 | 
[V:4] _B,,2 z2z4 | 
[V:1] _E8 | 
[V:2] z8 | 
[V:3] z8 | 
[V:4] G,2>>G,2 _E,7/E,/ | 
[V:1] =F8- | 
[V:2] z8 | 
[V:3] _E8 | 
[V:4] _B,,2>>B,,2 _B,7/B,/ | 
[V:1] FG._A.=A ._B.A.B.A | 
[V:2] z8 | 
[V:3] D4_A4- | 
[V:4] _A,2>>A,2 =F,7/F,/ | 
[V:1] _B8- | 
[V:2] z8 | 
[V:3] A4G4- | 
[V:4] _E,2>>E,2 _E7/E/ | 
[V:1] Bc._d.=d ._e.d.e.d | 
[V:2] z8 | 
[V:3] G4_d3G | 
[V:4] _D2>>D2 _B,7/B,/ | 
[V:1] _e8- | 
[V:2] z8 | 
[V:3] _A4G4 | 
[V:4] C2>>C2 _B,7/B,/ | 
[V:1] e8 | 
[V:2] z4c4 | 
[V:3] =F8- | 
[V:4] _A,2>>A,2 =A,7/A,/ | 
[V:1] d2z>d' _b2z3/b/ | 
[V:2] _B8 | 
[V:3] =F2z6 | 
[V:4] _B,2_B,,2 z2 D,2 | 
[V:1] =f2z>f =f'2z3/f'/ | 
[V:2] c8- | 
[V:3] _B8 | 
[V:4] z2 =F,2 z2 =F,,2 | 
[V:1] _e'2z>e' c'2z3/c'/ | 
[V:2] cd._e.=e .=f.e.f.e | 
[V:3] A8 | 
[V:4] z2 =F,2 z2 =F,,2 | 
[V:1] _d'2z>d' _b2z3/b/ | 
[V:2] =f8- | 
[V:3] _BA.B.c ._d.c.d.c | 
[V:4] z2 _B,,2 z2 _B,2 | 
[V:1] g2z>g c'2z3/c'/ | 
[V:2] fe._b.g .e.c._B.G | 
[V:3] _B6E,2 | 
[V:4] z2 C2 z2 C,2 | 
[V:1] =f2=F2 z2 _a2 | 
[V:2] _A2z>A =F2z3/F/ | 
[V:3] =F,8 | 
[V:4] =F,,2 z2z4 | 
[V:1] z2 _b2 z2 e2 | 
[V:2] E2z>E _B2z3/B/ | 
[V:3] G,8- | 
[V:4] ._D.C.D.C .D.C.D.C | 
[V:1] z2 e2 z2 _d'2 | 
[V:2] _d2z>d E2z3/E/ | 
[V:3] G,A,_B,A, B,A,B,A, | 
[V:4] _B,4z4 | 
[V:1] z2 c'2 z2 c'2 | 
[V:2] _G2z>G =F2z3/F/ | 
[V:3] _B,4A,4- | 
[V:4] _E=DED EDE_D | 
[V:1] z2 f2 z2 c'2 | 
[V:2] _e2z>e d2z3/c/ | 
[V:3] A,=B,.C.B, .C.A,.F,.D, | 
[V:4] C4z2 D,,2 | 
[V:1] ._b.g.g z z .b.b z | 
[V:2] ._B.G.G z z .B.B z | 
[V:3] _B,2z>B, G,2z3/G,/ | 
[V:4] G,,8 | 
[V:1] z .^c'.c' z z .d'.d' z | 
[V:2] z ._d.d z z .=d.d z | 
[V:3] F,2z>F, C2z3/C/ | 
[V:4] A,,8- | 
[V:1] z ff z z _e'e' z | 
[V:2] z FF z z _ee z | 
[V:3] _E2z>E F,2z3/F,/ | 
[V:4] A,,=B,,C,B,, C,B,,C,B,, | 
[V:1] z d'd' z z =f'f' z | 
[V:2] z dd z z =ff z | 
[V:3] _A,2z>A, G,2z3/G,/ | 
[V:4] C,4B,,4- | 
[V:1] z ^gg z z =f'f' z | 
[V:2] z ^GG z z =ff z | 
[V:3] =F2z>F ^G,2z3/G,/ | 
[V:4] B,,C,D,^C, D,C,D,C, | 
[V:1] z =e'e' z z =g'g' z | 
[V:2] z ee z z =gg z | 
[V:3] _B,2z>B, =A,2z3/A,/ | 
[V:4] D,4^C,4- | 
[V:1] z ^cc z z _bb z | 
[V:2] z ^CC z z ^AA z | 
[V:3] G2z>G ^C2z3/C/ | 
[V:4] C,D,E,^D, E,D,E,D, | 
[V:1] z2 [^c2_b2]z4 | 
[V:2] z2 A2z4 | 
[V:3] .G2.E2z4 | 
[V:4] E,4z4 | 
[V:1] .^c4.c4 | 
[V:2] z8 | 
[V:3] .G4.G4 | 
[V:4] .E4.E4 | 
[V:1] _b6bg | 
[V:2] ^c6c2 | 
[V:3] G6G_B | 
[V:4] E6E2 | 
[V:1] ag_bg agbg | 
[V:2] .^c2.c2 .c2.c2 | 
[V:3] A_BGB ABGB | 
[V:4] .E2.E2 .E2.E2 | 
[V:1] ag z2z4 | 
[V:2] ^c2 z2z4 | 
[V:3] A_B z2z4 | 
[V:4] E4z4 | 
[V:1] .^c4.c4 | 
[V:2] .^A4.A4 | 
[V:3] .G4.G4 | 
[V:4] .E,4.E,4 | 
[V:1] [c6a6]=c'a | 
[V:2] A6=cA | 
[V:3] D6d2 | 
[V:4] F,6F2 | 
[V:1] bac'a bac'a | 
[V:2] ^GAcA GAcA | 
[V:3] d2d2 d2d2 | 
[V:4] F2F2 F2F2 | 
[V:1] baz4e'c' | 
[V:2] ^GAz4c'a | 
[V:3] d2z6 | 
[V:4] F4z4 | 
[V:1] d'c'e'c' d'c'e'c' | 
[V:2] ^gac'a gac'a | 
[V:3] z8 | 
[V:4] z8 | 
[V:1] d'c'z4e'c' | 
[V:2] ^gaz4c'a | 
[V:3] z2 Ac Bc z2 | 
[V:4] [K:clef=tenor]z2 FA ^GA z2 | 
[V:1] d'c'z4e'c' | 
[V:2] ^gaz4c'a | 
[V:3] z2 Ac Bc z2 | 
[V:4] z2 FA ^GA z2 | 
[V:1] d'c' z2z4 | 
[V:2] ba z2z4 | 
[V:3] z8 | 
[V:4] .D4.D4 | 
[V:1] z8 | 
[V:2] z8 | 
[V:3] z8 | 
[V:4] D8 | 
[V:1] z8 | 
[V:2] z8 | 
[V:3] .C4.C4 | 
[V:4] .D4.D4 | 
[V:1] z8 | 
[V:2] z8 | 
[V:3] C8 | 
[V:4] D8 | 
[V:1] .[D4d4].[D4d4] | 
[V:2] z8 | 
[V:3] .B,2.G2 .D2.B,2 | 
[V:4] D4B,/C/B,/C/D/E/F/G/ | 
[V:1] [D8d8] | 
[V:2] z8 | 
[V:3] .G,2.D2 .B,2.G,2 | 
[V:4] D4z3 B, | 
[V:1] .[D4d4].[D4d4] | 
[V:2] .[D4c4].[D4c4] | 
[V:3] .F,2.D,2 .F,2.A,2 | 
[V:4] C2z>C A,2z3/F,/ | 
[V:1] [D8d8] | 
[V:2] [D6c6]A2 | 
[V:3] .C2.A,2 .F,2.D,2 | 
[V:4] D,6C,2 | 
[V:1] d4B/c/B/c/d/e/f/g/ | 
[V:2] G4z4 | 
[V:3] G,2[D,4B,4][D,2B,2]- | 
[V:4] [K:clef=bass].B,,2.G,2 .D,2.B,,2 | 
[V:1] d4z3 B | 
[V:2] D4B,/C/B,/C/D/E/F/G/ | 
[V:3] [D,2B,2][D,4B,4][D,2B,2] | 
[V:4] .G,,2.D,2 .B,,2.G,,2 | 
[V:1] c2z>c A2z3/F/ | 
[V:2] A4z2 z3/ B/ | 
[V:3] [D,2C2][D,4C4][D,2C2]- | 
[V:4] .F,,2.D,,2 .F,,2.A,,2 | 
[V:1] D4z2 D2 | 
[V:2] c2z>c A2z3/F/ | 
[V:3] [D,2C2][D,4C4][D,2C2] | 
[V:4] .D,2.F,2 .A,2.C2 | 
[V:1] G4ABcA | 
[V:2] D2G4F2 | 
[V:3] [D,2B,2] z2A4- | 
[V:4] .B,2.E,2 .D,2.C,2 | 
[V:1] d4g2G,2 | 
[V:2] B6A2 | 
[V:3] A2G2c4 | 
[V:4] .B,,2.G,,2 .F,,2.E,,2 | 
[V:1] G4ABcA | 
[V:2] .d2.e2 .d2FA | 
[V:3] .B2.G,2 .G,2A,C | 
[V:4] D,,2^C,,2 D,,2D,,2 | 
[V:1] G4z4 | 
[V:2] G4z4 | 
[V:3] B,4z4 | 
[V:4] G,,4z4 | 
[V:1] [B4b4]a/g/f/g/f/g/b/g/ | 
[V:2] B,8 | 
[V:3] D,8- | 
[V:4] G,,8 | 
[V:1] d4z3 D | 
[V:2] C4z3 C | 
[V:3] D,4z3 D, | 
[V:4] A,,4z3 A,, | 
[V:1] G2z>G B2z3/B/ | 
[V:2] D2z>D B,2z3/B,/ | 
[V:3] D,2z>D, G,2z3/G,/ | 
[V:4] B,,2>>B,,2 G,,7/G,,/ | 
[V:1] d2 z2z4 | 
[V:2] A,2 z2z4 | 
[V:3] F,2 z2z4 | 
[V:4] D,,2 z2z4 | 
[V:1] z8 | 
[V:2] B4A/G/F/G/F/G/B/G/ | 
[V:3] G,4B,4 | 
[V:4] z8 | 
[V:1] =f4e/d/^c/d/c/d/f/d/ | 
[V:2] D2 z2z4 | 
[V:3] D2 z2z4 | 
[V:4] D,4=F,4 | 
[V:1] A2 z2z4 | 
[V:2] c4B/A/^G/A/G/A/c/A/ | 
[V:3] A,4C4 | 
[V:4] A,4z4 | 
[V:1] g4f/e/^d/e/d/e/g/e/ | 
[V:2] E2 z2z4 | 
[V:3] E2 z2z4 | 
[V:4] E,4G,4 | 
[V:1] ^d4e2g2 | 
[V:2] B4A/G/F/E/^D/E/G/E/ | 
[V:3] B,4C4 | 
[V:4] B,2 z2z4 | 
[V:1] b6^a2 | 
[V:2] ^D2A2- A/G/F/E/D/E/G/E/ | 
[V:3] B,4E,2G,2 | 
[V:4] B,,4C,4 | 
[V:1] b6^a2 | 
[V:2] ^D2A2- A/G/F/E/D/E/G/E/ | 
[V:3] B,4E,2G,2 | 
[V:4] B,,4C,4 | 
[V:1] b2 z2 B2 z2 | 
[V:2] ^D2 z2 D2 z2 | 
[V:3] B,2 z2 F,2 z2 | 
[V:4] B,,4B,,4 | 
[V:1] B2z6 | 
[V:2] ^D2z6 | 
[V:3] F,2z6 | 
[V:4] B,,4z4 | 
[V:1] B4^G/A/G/A/B/^c/^d/e/ | 
[V:2] B,8- | 
[V:3] ^G,8- | 
[V:4] E,8- | 
[V:1] B4z3 ^G | 
[V:2] B,4z3 ^G | 
[V:3] G,4z3 ^G, | 
[V:4] E,4z3 ^G, | 
[V:1] A2z>A F2z3/^D/ | 
[V:2] A2z>A F2z3/^D/ | 
[V:3] A,2z>A F2z3/^D/ | 
[V:4] A,2z>A, F,2z3/^D,/ | 
[V:1] B,4z2 B2 | 
[V:2] B,4z4 | 
[V:3] B,2 z2z4 | 
[V:4] B,,2 z2z4 | 
[V:1] e4f^gaf | 
[V:2] z2e4.^d2 | 
[V:3] z2 .^c2 .A2.B2 | 
[V:4] z8 | 
[V:1] b4e'2B2 | 
[V:2] .e2.^g2 z2 B,2 | 
[V:3] .^G2.E2z4 | 
[V:4] z8 | 
[V:1] e4fgaf | 
[V:2] E4FGAF | 
[V:3] z .G,.F,.E, .C2.^D,2 | 
[V:4] z2 .C,2 .A,,2.B,,2 | 
[V:1] g4abc'a | 
[V:2] G4ABcA | 
[V:3] z .B,.A,.G, .E2.F,2 | 
[V:4] E,,2E,2 C,2D,2 | 
[V:1] b4^c'd'e'c' | 
[V:2] B4^cdec | 
[V:3] z D^CD GECG, | 
[V:4] G,,2G,2 E,2A,2 | 
[V:1] d'4c'4 | 
[V:2] d4c4 | 
[V:3] F,4-F,G,A,F, | 
[V:4] D,2D,2 D,,2D,2 | 
[V:1] b4^c'4 | 
[V:2] B4^c4 | 
[V:3] G,4E,F,G,E, | 
[V:4] D,,2D,2 D,,2D,2 | 
[V:1] d'4^d'e'f'd' | 
[V:2] d4cBAc | 
[V:3] F,4AGFA | 
[V:4] D,,2D2 D,2D2 | 
[V:1] e'4^c'd'e'c' | 
[V:2] B4_BAGB | 
[V:3] G4-GFEG | 
[V:4] D,2D2 D,2D2 | 
[V:1] (3d'd'^c' (3d'e'f' (3g'e'c' (3abc' | 
[V:2] .A2.[A,2F2] z2 [A,2G2] | 
[V:3] .F2.D2 z2 E2 | 
[V:4] D,4A,4 | 
[V:1] (3d'af (3def (3ge^c (3ABc | 
[V:2] z2 [A,2F2] z2 [A,2G2] | 
[V:3] z2 D2 z2 E2 | 
[V:4] D,4A,,4 | 
[V:1] (3dfa (3d'af (3dAF (3dAF | 
[V:2] [A,4F4]z2 (3.D.F.A | 
[V:3] D4z2 (3.D,.F,.A, | 
[V:4] D,4(3:2:5z2 z .D,,.F,,.A,, | 
[V:1] D4z4 | 
[V:2] d4z2 D2 | 
[V:3] D4z4 | 
[V:4] D,4z4 | 
[V:1] z4.F4 | 
[V:2] .B4.A4 | 
[V:3] .D4.D4 | 
[V:4] .G,4.C4 | 
[V:1] G6^D2 | 
[V:2] d6c2 | 
[V:3] D6A,2 | 
[V:4] B,6F,2 | 
[V:1] .E2.C2 .B,2.A,2 | 
[V:2] .B2.A2 .G2.A2 | 
[V:3] .B,2.F,2 .G,2.G,2 | 
[V:4] .G,2.^D,2 .E,2.^C,2 | 
[V:1] A,2z6 | 
[V:2] .D.D.E.F .G.^G.A.B | 
[V:3] F,2z6 | 
[V:4] D,4z4 | 
[V:1] z4.^G4 | 
[V:2] .c4.B4 | 
[V:3] .E4.E4 | 
[V:4] .A,4.D4 | 
[V:1] A6A2 | 
[V:2] e6f2 | 
[V:3] E6D2- | 
[V:4] C6C2 | 
[V:1] .G2.A2 .B2.c2 | 
[V:2] .g2.a2 .d2.f2 | 
[V:3] D2.E2 .G2.A2 | 
[V:4] .B,2.C2 .D2.D,2 | 
[V:1] .B.d.e.f .g.^g.a.^a | 
[V:2] g2z6 | 
[V:3] G2z6 | 
[V:4] G,4z4 | 
[V:1] .b4.a4 | 
[V:2] z8 | 
[V:3] z .D,.E,.F, .G,.A,.B,.C | 
[V:4] .G,,4.C,4 | 
[V:1] d'6c'2 | 
[V:2] z .D.E.F .G.A.B.c | 
[V:3] D6D2 | 
[V:4] B,,6A,,2 | 
[V:1] .b2.a2 .=g2.a2 | 
[V:2] ddef geB^c | 
[V:3] .D2.D2 .D2.G2 | 
[V:4] .G,,2.F,,2 .E,,2.E,2 | 
[V:1] .d.d.e.f .g.^g.a.b | 
[V:2] d2 z2z4 | 
[V:3] F2 z2z4 | 
[V:4] D,4z4 | 
[V:1] c'2 z2 b2 z2 | 
[V:2] z8 | 
[V:3] z .E,.F,.^G, .A,.B,.C.D | 
[V:4] .A,,4.D,4 | 
[V:1] e'6d'2 | 
[V:2] z .E.F.^G .A.B.c.d | 
[V:3] E6E2 | 
[V:4] C,6B,,2 | 
[V:1] .c'2.b2 a2^a2 | 
[V:2] eeee eefe | 
[V:3] EEEE EEFE | 
[V:4] A,,2B,,2 C,2C,2 | 
[V:1] b2 z> B b2a2- | 
[V:2] ^d2 z2 g2f2- | 
[V:3] ^D2z4B,2 | 
[V:4] B,,4z .B,,.^C,.^D, | 
[V:1] a2g z/ B/ b2a2- | 
[V:2] f2e z g2f2- | 
[V:3] B6B,2 | 
[V:4] E,2E,2 z .B,,.^C,.^D, | 
[V:1] a2gz/B/ b2a2- | 
[V:2] f2e z g2f2- | 
[V:3] B6B,2 | 
[V:4] E,2E,2 z .B,,.^C,.^D, | 
[V:1] a2g2^g4 | 
[V:2] f2e2B4 | 
[V:3] B4=F4 | 
[V:4] .E,2.E,2D4 | 
[V:1] a>ec'>a .g2f2 | 
[V:2] c2e>c B2c2 | 
[V:3] E2C>E D2D2 | 
[V:4] C2A,>C D2D,2 | 
[V:1] g2 z2 z2 b2- | 
[V:2] B2z>B b2a2- | 
[V:3] D2 z2 G2F2- | 
[V:4] G,4z .B,,.^C,.^D, | 
[V:1] b^d'e'c' .b2b2- | 
[V:2] a2gz/B/ b2a2- | 
[V:3] F2E z G2F2- | 
[V:4] E,2E,2 z .B,,.^C,.^D, | 
[V:1] b^d'e'c' .b2b2- | 
[V:2] a2gz/B/ b2a2- | 
[V:3] F2E z G2F2- | 
[V:4] E,2E,2 z .B,,.^C,.^D, | 
[V:1] be'^d'e'=f'4- | 
[V:2] a2g z^g4 | 
[V:3] F2E zB,4 | 
[V:4] E,2E,2D,4 | 
[V:1] f'e' d'/c'/b/a/ .g2f2 | 
[V:2] acde B2c2 | 
[V:3] CCDE D2D,2 | 
[V:4] C,A,,B,,C, D,2D,,2 | 
[V:1] g2 z2 (3:2:6.A.B.c.d.e.f | 
[V:2] .BDGD z DFD | 
[V:3] G,2 z2 C2 z2 | 
[V:4] G,,4z4 | 
[V:1] g>db2 a>dc'2 | 
[V:2] z DGD z DAD | 
[V:3] B,2 z2 F,2 z2 | 
[V:4] z8 | 
[V:1] b>dd'2z4 | 
[V:2] z DBD (3:2:6.A,.B,.C.D.E.F | 
[V:3] G,2 z2 z D,F,D, | 
[V:4] z4C,2 z2 | 
[V:1] z8 | 
[V:2] .GGDB .AADc | 
[V:3] z D,G,D, z D,A,D, | 
[V:4] B,,2 z2 F,,2 z2 | 
[V:1] z4(3:2:6.A.B.c.d.e.f | 
[V:2] .BBDd .A.d.A.d | 
[V:3] z D,B,D, .F.D.F.D | 
[V:4] G,,2 z2 C2 z2 | 
[V:1] .ggdb .aadc' | 
[V:2] BdBd cdcd | 
[V:3] GDGD ADAD | 
[V:4] B,2 z2 F,2 z2 | 
[V:1] .bbdd' (3:2:6.a.b.c'.d'.e'.f' | 
[V:2] BdBe AeAd | 
[V:3] GDGD FDFD | 
[V:4] G,2 z2 C2 z2 | 
[V:1] (3g'f'g' (3^d'e'd' (3e'f'e' (3bc'b | 
[V:2] B2.B2 .c2.^G2 | 
[V:3] G2 z2z4 | 
[V:4] B,4z4 | 
[V:1] (3:2:6c'd'c'^gag (3:2:6aba=gag | 
[V:2] .A2.=F2 .^F2.E2 | 
[V:3] z8 | 
[V:4] z8 | 
[V:1] (3:2:6fgfefe (3:2:6dedcdc | 
[V:2] .D2.C2 .B,2.A,2 | 
[V:3] z2 .F,2 .G,2.A,2 | 
[V:4] z2 .D,2 .E,2.F,2 | 
[V:1] BbBb cc'dd' | 
[V:2] G,2G4G2- | 
[V:3] B,2G,4=F2 | 
[V:4] G,2=F,2 E,2B,,2 | 
[V:1] ee'ff' gg'aa' | 
[V:2] G2d4d2- | 
[V:3] E2C2 D2D2- | 
[V:4] C,2A,,2 B,,2F,,2 | 
[V:1] bb'2b'- b'b'2b'- | 
[V:2] d2B4B2- | 
[V:3] D2G,4G,2- | 
[V:4] .G,,2.^D,,2 .E,,2.^C,,2 | 
[V:1] b'b'2b'- b'b'2b'- | 
[V:2] B2B4B2- | 
[V:3] G,2G,4G,2- | 
[V:4] .D,,2.^D,,2 .E,,2.^C,,2 | 
[V:1] b'2 (3bgb (3c'ac' (3^c'^ac' | 
[V:2] B2g2 f2e2 | 
[V:3] G,2G2 F2E2 | 
[V:4] D,,8- | 
[V:1] (3:2:6d'bd'bgb (3:2:6c'ac'^c'^ac' | 
[V:2] d2G2 F2E2 | 
[V:3] D2G,2 F,2E,2 | 
[V:4] D,,2G,,2 F,,2E,,2 | 
[V:1] (3d'bd' z2 z2 d2 | 
[V:2] .D2 z2z4 | 
[V:3] .D,2 z2z4 | 
[V:4] .D,,2 z2z4 | 
[V:1] g4abc'a | 
[V:2] z2g4f2 | 
[V:3] z2 .e2 .c2.d2 | 
[V:4] z8 | 
[V:1] d'4g'2D2 | 
[V:2] .g2.b2z4 | 
[V:3] .B2.G2z4 | 
[V:4] z8 | 
[V:1] G4ABcA | 
[V:2] z2 .B2 .e2.c2 | 
[V:3] z2.G,4.F,2 | 
[V:4] z2 .E,2 .C,2.D,2 | 
[V:1] G4z4 | 
[V:2] B4z4 | 
[V:3] G,2 z2z4 | 
[V:4] G,,4z2 D,2 | 
[V:1] z8 | 
[V:2] z8 | 
[V:3] z8 | 
[V:4] G,4A,B,CA, | 
[V:1] G8- | 
[V:2] z8 | 
[V:3] G,4A,B,CA, | 
[V:4] B,4CDEC | 
[V:1] G8- | 
[V:2] =f4edce | 
[V:3] B,4CDEC | 
[V:4] D4E=FGE | 
[V:1] G2!fermata!_A6 | 
[V:2] !fermata!B8 | 
[V:3] !fermata!D8 | 
[V:4] !fermata!=F8 | 
[V:1] B8- | 
[V:2] A4GFEG | 
[V:3] F,4G,A,B,G, | 
[V:4] ^D,4E,F,G,E, | 
[V:1] B2c6 | 
[V:2] ^D8 | 
[V:3] A,8 | 
[V:4] F,8 | 
[V:1] d8- | 
[V:2] c4BAGB | 
[V:3] A,4B,CDB, | 
[V:4] F,4G,A,B,G, | 
[V:1] d2_e6 | 
[V:2] F8 | 
[V:3] C8 | 
[V:4] A,8 | 
[V:1] d4B/c/B/c/d/e/f/g/ | 
[V:2] G2z6 | 
[V:3] D2z6 | 
[V:4] B,4z4 | 
[V:1] d4z3 B | 
[V:2] z4z3 B, | 
[V:3] z4z3 B, | 
[V:4] z4z3 B, | 
[V:1] c2z>c A2z3/F/ | 
[V:2] C2z>c A2z3/F/ | 
[V:3] C2z>C A,2z3/F,/ | 
[V:4] C2>>C2 A,7/F,/ | 
[V:1] D4z2 d2 | 
[V:2] D4z4 | 
[V:3] D,4z4 | 
[V:4] D,4z4 | 
[V:1] g4abc'a | 
[V:2] z2g4.f2 | 
[V:3] z2 .e2 .c2.d2 | 
[V:4] z8 | 
[V:1] d'4g'2 z2 | 
[V:2] .g2.b2z4 | 
[V:3] .B2.G2 z2 D,2 | 
[V:4] z8 | 
[V:1] z6[A2f2] | 
[V:2] z6[D2c2] | 
[V:3] G,4A,B,CA, | 
[V:4] z2 E,2 C,2D,2 | 
[V:1] [B2g2]z6 |]  
[V:2] [D2B2]z6 |]  
[V:3] G,2z6 |]  
[V:4] G,,4z4 |]  


